X:1
T:Wild Bill Jones (2)
M:3/4
L:1/8
K:G
 DE| G4A-G| E4 DE| G2 A2 G2| E4 G2| d2 d2B-A| G4 D2| E6-| E4D-E| G4 AG|\
 E4 DE| G2 A2 G2| E4 G2| B2 d2 BA| G4 AG| E6-| E4 c2| d3 d d2| c4d-c|\
 B4 A2| G4 A2| d4 BA| G4A-G| E6-| E4D-E| G4 AG| E4D-E| G2- A2 G2| E4 GA|\
 B2- d2B-A| G4 D2| E6-| E4||
